images/contacts/linkedin.svg

<svg width="32" height="32" viewBox="0 0 32 32" fill="none" xmlns="http://www.w3.org/2000/svg">
<path d="M8.0119 4C6.35172 4 5 5.35172 5 7.0119C5 8.67209 6.35172 10.0238 8.0119 10.0238C9.67209 10.0238 11.0238 8.67209 11.0238 7.0119C11.0238 5.35172 9.67209 4 8.0119 4ZM22.25 11.119C20.2487 11.119 19.0447 12.1116 18.1429 13.1298V11.9405C18.1428 11.7971 18.0124 11.6667 17.869 11.6667H13.4881C13.3447 11.6667 13.2143 11.7971 13.2143 11.9405V26.7262C13.2143 26.8696 13.3447 27 13.4881 27H18.1429C18.2862 27 18.4167 26.8696 18.4167 26.7262V18.5119C18.4167 17.7634 18.6488 17.0605 19.0071 16.561C19.3653 16.0615 19.8322 15.7738 20.3333 15.7738H20.8809C21.3821 15.7738 21.8489 16.0615 22.2072 16.561C22.5655 17.0605 22.7976 17.7634 22.7976 18.5119V26.7262C22.7976 26.8696 22.9281 27 23.0714 27H27.7262C27.8696 27 28 26.8696 28 26.7262V17.1429C28 15.3524 27.6565 13.8407 26.7422 12.7705C25.8278 11.7002 24.3629 11.119 22.25 11.119ZM5.77009 11.6667C5.64457 11.6906 5.54537 11.8127 5.54762 11.9405V26.7262C5.54763 26.8696 5.67807 27 5.82143 27H10.4762C10.6196 27 10.75 26.8696 10.75 26.7262V11.9405C10.75 11.7971 10.6196 11.6667 10.4762 11.6667C8.90915 11.6667 7.33318 11.6667 5.77009 11.6667Z" stroke="current-color"/>
</svg>

<svg width="32" height="32" fill="none" xmlns="http://www.w3.org/2000/svg"><path d="M8.012 4A3.016 3.016 0 005 7.012a3.016 3.016 0 003.012 3.012 3.016 3.016 0 003.012-3.012A3.016 3.016 0 008.012 4zm14.238 7.119c-2.001 0-3.205.993-4.107 2.01v-1.188a.285.285 0 00-.274-.274h-4.38a.284.284 0 00-.275.274v14.785c0 .144.13.274.274.274h4.655c.143 0 .274-.13.274-.274v-8.214c0-.749.232-1.451.59-1.951s.825-.787 1.326-.787h.548c.501 0 .968.287 1.326.787.358.5.59 1.202.59 1.95v8.215c0 .144.131.274.274.274h4.655c.144 0 .274-.13.274-.274v-9.583c0-1.79-.343-3.302-1.258-4.373-.914-1.07-2.38-1.651-4.492-1.651zm-16.48.548a.283.283 0 00-.222.274v14.785c0 .144.13.274.273.274h4.655c.144 0 .274-.13.274-.274V11.941a.284.284 0 00-.274-.274H5.77z" stroke="current-color"/></svg>
